X: 380
T: Tip the Cruiskeen   #2
B: Francis O'Neill: "The Dance Music of Ireland" (1907) #380
R: single jig
%S: s:2 b:12(6+6)
Z: Transcribed by Frank Nordberg - http://www.musicaviva.com
F: http://www.musicaviva.com/abc/tunes/ireland/oneill-1001/0380/oneill-1001-0380-1.abc
M: 6/8
L: 1/8
K: A	% and F#m
"^A"|: A2B c2A | B2G A2F |[1,3 cAF FAF | cAF FAF :|[2,4 BGE EGE | BGE EGE :|
"^B"|: e2c d2B | c2A cde |[1,3 cAF FAF | cAF FAF :|[2,4 BGE EGE | BGE EGE :|
